; generated by PrusaSlicer 2.7.4+win64 on 2024-07-30 at 16:07:28 UTC

; 

; external perimeters extrusion width = 0.42mm
; perimeters extrusion width = 0.44mm
; infill extrusion width = 0.44mm
; solid infill extrusion width = 0.44mm
; top infill extrusion width = 0.40mm
; first layer extrusion width = 0.42mm

M201 X500 Y500 Z100 E5000 ; sets maximum accelerations, mm/sec^2
M203 X500 Y500 Z10 E60 ; sets maximum feedrates, mm / sec
M204 S500 T1000 ; sets acceleration (S) and retract acceleration (R), mm/sec^2
M205 X8.00 Y8.00 Z0.40 E5.00 ; sets the jerk limits, mm/sec
M205 S0 T0 ; sets the minimum extruding and travel feed rate, mm/sec

; printing object Motor Speed Regulator Mount 007.stl id:0 copy 0
; stop printing object Motor Speed Regulator Mount 007.stl id:0 copy 0

;TYPE:Custom
G90 ; use absolute coordinates
M83 ; extruder relative mode
M140 S60 ; set final bed temp
M104 S200 ; set final nozzle temp
G4 S30 ; allow partial nozzle warmup
G28 ; home all axis
G1 Z50 F240
G1 X2.0 Y10 F3000
M190 S60 ; wait for bed temp to stabilize
M109 S200 ; wait for nozzle temp to stabilize
G1 Z0.28 F240
G92 E0
G1 X2.0 Y140 E10 F1500 ; prime the nozzle
G1 X2.3 Y140 F5000
G92 E0
G1 X2.3 Y10 E10 F1200 ; prime the nozzle
G92 E0
G21 ; set units to millimeters
G90 ; use absolute coordinates
M83 ; use relative distances for extrusion
; Filament gcode
M107
;LAYER_CHANGE
;Z:0.2
;HEIGHT:0.2
G1 E-3 F3600
G1 Z.2 F9000
; printing object Motor Speed Regulator Mount 007.stl id:0 copy 0
G1 X171.751 Y80.812
G1 Z.2
G1 E3 F2400
M204 S500
;TYPE:Perimeter
;WIDTH:0.419999
G1 F1200
G1 X171.837 Y81.132 E.01039
G1 X172.163 Y81.886 E.02576
G1 X172.465 Y82.343 E.01717
G1 X172.853 Y82.843 E.01984
G1 X173.31 Y83.27 E.01961
G1 X173.895 Y83.708 E.02291
G1 X174.356 Y83.951 E.01634
G1 X174.868 Y84.163 E.01738
G1 X175.582 Y84.354 E.02317
G1 X176.131 Y84.426 E.01736
G1 X176.869 Y84.426 E.02314
G1 X177.55 Y84.319 E.02161
G1 X177.55 Y146.686 E1.95547
G1 X177.38 Y146.641 E.00551
G1 X176.8 Y146.573 E.01831
G1 X176.1 Y146.578 E.02195
G1 X175.582 Y146.646 E.01638
G1 X174.868 Y146.837 E.02317
G1 X174.115 Y147.163 E.02573
G1 X173.717 Y147.418 E.01482
G1 X173.146 Y147.863 E.0227
G1 X172.755 Y148.278 E.01788
G1 X172.321 Y148.852 E.02256
G1 X172.049 Y149.356 E.01796
G1 X171.837 Y149.868 E.01738
G1 X171.646 Y150.582 E.02317
G1 X171.574 Y151.131 E.01736
G1 X171.574 Y151.869 E.02314
G1 X171.681 Y152.55 E.02161
G1 X162.99 Y152.55 E.2725
G1 X163.163 Y152.132 E.01418
G1 X163.354 Y151.418 E.02317
G1 X163.426 Y150.869 E.01736
G1 X163.426 Y150.131 E.02314
G1 X163.277 Y149.199 E.02959
G1 X163.163 Y148.868 E.01098
G1 X162.877 Y148.193 E.02299
G1 X162.582 Y147.717 E.01756
G1 X162.121 Y147.128 E.02345
G1 X161.722 Y146.755 E.01713
G1 X161.156 Y146.326 E.02227
G1 X160.644 Y146.049 E.01825
G1 X159.887 Y145.749 E.02553
G1 X159.38 Y145.641 E.01625
G1 X158.685 Y145.562 E.02193
G1 X158.1 Y145.578 E.01835
G1 X157.453 Y145.666 E.02047
G1 X156.868 Y145.837 E.01911
G1 X156.169 Y146.135 E.02383
G1 X155.717 Y146.418 E.01672
G1 X155.107 Y146.897 E.02432
G1 X154.755 Y147.278 E.01626
G1 X154.327 Y147.843 E.02222
G1 X154.049 Y148.356 E.01829
G1 X153.837 Y148.868 E.01738
G1 X153.646 Y149.582 E.02317
G1 X153.574 Y150.131 E.01736
G1 X153.574 Y150.869 E.02314
G1 X153.646 Y151.418 E.01736
G1 X153.837 Y152.132 E.02317
G1 X154.01 Y152.55 E.01418
G1 X125.99 Y152.55 E.87855
G1 X126.163 Y152.132 E.01418
G1 X126.354 Y151.418 E.02317
G1 X126.426 Y150.869 E.01736
G1 X126.426 Y150.131 E.02314
G1 X126.354 Y149.582 E.01736
G1 X126.163 Y148.868 E.02317
G1 X125.86 Y148.158 E.0242
G1 X125.582 Y147.717 E.01635
G1 X125.164 Y147.177 E.02141
G1 X124.722 Y146.755 E.01916
G1 X124.15 Y146.322 E.02249
G1 X123.644 Y146.049 E.01803
G1 X122.911 Y145.756 E.02475
G1 X122.38 Y145.641 E.01704
G1 X121.685 Y145.562 E.02193
G1 X121.1 Y145.578 E.01835
G1 X120.453 Y145.666 E.02047
G1 X119.868 Y145.837 E.01911
G1 X119.169 Y146.135 E.02383
G1 X118.717 Y146.418 E.01672
G1 X118.107 Y146.897 E.02432
G1 X117.755 Y147.278 E.01626
G1 X117.327 Y147.843 E.02222
G1 X117.049 Y148.356 E.01829
G1 X116.837 Y148.868 E.01738
G1 X116.646 Y149.582 E.02317
G1 X116.574 Y150.131 E.01736
G1 X116.574 Y150.869 E.02314
G1 X116.646 Y151.418 E.01736
G1 X116.837 Y152.132 E.02317
G1 X117.01 Y152.55 E.01418
G1 X79.319 Y152.55 E1.18177
G1 X79.354 Y152.418 E.00428
G1 X79.426 Y151.869 E.01736
G1 X79.426 Y151.131 E.02314
G1 X79.354 Y150.582 E.01736
G1 X79.163 Y149.868 E.02317
G1 X78.829 Y149.099 E.02629
G1 X78.582 Y148.717 E.01426
G1 X78.144 Y148.154 E.02237
G1 X77.722 Y147.755 E.01821
G1 X77.106 Y147.293 E.02414
G1 X76.644 Y147.049 E.01638
G1 X75.872 Y146.744 E.02603
G1 X75.38 Y146.641 E.01576
G1 X74.618 Y146.557 E.02404
G1 X74.1 Y146.578 E.01625
G1 X73.355 Y146.685 E.0236
G1 X72.868 Y146.837 E.016
G1 X72.134 Y147.153 E.02506
G1 X71.686 Y147.442 E.01672
G1 X71.062 Y147.939 E.02501
G1 X70.674 Y148.384 E.01851
G1 X70.334 Y148.833 E.01766
G1 X70.049 Y149.356 E.01867
G1 X69.837 Y149.868 E.01738
G1 X69.646 Y150.582 E.02317
G1 X69.574 Y151.131 E.01736
G1 X69.574 Y151.869 E.02314
G1 X69.681 Y152.55 E.02161
G1 X57.324 Y152.55 E.38744
G1 X57.722 Y152.245 E.01572
G1 X58.245 Y151.722 E.02319
G1 X58.582 Y151.283 E.01735
G1 X58.951 Y150.644 E.02314
G1 X59.163 Y150.132 E.01738
G1 X59.354 Y149.418 E.02317
G1 X59.426 Y148.869 E.01736
G1 X59.426 Y148.131 E.02314
G1 X59.294 Y147.266 E.02744
G1 X59.112 Y146.745 E.0173
G1 X58.879 Y146.197 E.01867
G1 X58.558 Y145.686 E.01892
G1 X58.114 Y145.12 E.02256
G1 X57.722 Y144.755 E.01679
G1 X57.111 Y144.296 E.02396
G1 X56.644 Y144.049 E.01656
G1 X55.796 Y143.722 E.0285
G1 X55.38 Y143.641 E.01329
G1 X54.8 Y143.573 E.01831
G1 X54.1 Y143.578 E.02195
G1 X53.45 Y143.681 E.02063
G1 X53.45 Y84.319 E1.86125
G1 X53.582 Y84.354 E.00428
G1 X54.131 Y84.426 E.01736
G1 X54.869 Y84.426 E.02314
G1 X55.418 Y84.354 E.01736
G1 X56.132 Y84.163 E.02317
G1 X56.901 Y83.829 E.02629
G1 X57.283 Y83.582 E.01426
G1 X57.828 Y83.159 E.02163
G1 X58.245 Y82.722 E.01894
G1 X58.704 Y82.111 E.02396
G1 X58.951 Y81.644 E.01656
G1 X59.163 Y81.132 E.01738
G1 X59.354 Y80.418 E.02317
G1 X59.426 Y79.869 E.01736
G1 X59.426 Y79.131 E.02314
G1 X59.319 Y78.45 E.02161
G1 X171.681 Y78.45 E3.52303
G1 X171.646 Y78.582 E.00428
G1 X171.574 Y79.131 E.01736
G1 X171.574 Y79.869 E.02314
G1 X171.646 Y80.418 E.01736
G1 X171.736 Y80.754 E.01091
G1 X171.736 Y80.754 F9000
G1 X172.112 Y80.713
G1 F1200
G1 X172.185 Y80.987 E.00889
G1 X172.496 Y81.709 E.02465
G1 X172.764 Y82.114 E.01523
G1 X173.14 Y82.597 E.01919
G1 X173.54 Y82.971 E.01717
G1 X174.024 Y83.34 E.01908
G1 X174.501 Y83.603 E.01708
G1 X175.013 Y83.815 E.01738
G1 X175.631 Y83.98 E.02006
G1 X176.18 Y84.053 E.01736
G1 X176.82 Y84.053 E.02007
G1 X177.369 Y83.98 E.01736
G1 X177.928 Y83.831 E.01814
G1 X177.928 Y147.17 E1.98595
G1 X177.336 Y147.016 E.01918
G1 X176.756 Y146.947 E.01831
G1 X176.15 Y146.951 E.019
G1 X175.631 Y147.02 E.01642
G1 X175.013 Y147.185 E.02006
G1 X174.292 Y147.496 E.02462
G1 X173.947 Y147.717 E.01285
G1 X173.393 Y148.148 E.02201
G1 X173.055 Y148.507 E.01546
G1 X172.633 Y149.064 E.02191
G1 X172.397 Y149.501 E.01557
G1 X172.185 Y150.013 E.01738
G1 X172.02 Y150.631 E.02006
G1 X171.947 Y151.18 E.01736
G1 X171.947 Y151.82 E.02007
G1 X172.02 Y152.369 E.01736
G1 X172.169 Y152.928 E.01814
G1 X162.355 Y152.928 E.30771
G1 X162.603 Y152.499 E.01554
G1 X162.815 Y151.987 E.01738
G1 X162.98 Y151.369 E.02006
G1 X163.053 Y150.82 E.01736
G1 X163.053 Y150.18 E.02007
G1 X162.98 Y149.631 E.01736
G1 X162.815 Y149.013 E.02006
G1 X162.539 Y148.359 E.02226
G1 X162.283 Y147.947 E.01521
G1 X161.839 Y147.378 E.02263
G1 X161.493 Y147.055 E.01484
G1 X160.943 Y146.638 E.02164
G1 X160.499 Y146.397 E.01584
G1 X159.88 Y146.144 E.02097
G1 X159.336 Y146.016 E.01752
G1 X158.656 Y145.938 E.02146
G1 X158.15 Y145.951 E.01587
G1 X157.519 Y146.037 E.01997
G1 X157.013 Y146.185 E.01653
G1 X156.417 Y146.434 E.02025
G1 X155.947 Y146.717 E.0172
G1 X155.406 Y147.137 E.02147
G1 X155.055 Y147.507 E.01599
G1 X154.638 Y148.055 E.02159
G1 X154.397 Y148.501 E.01589
G1 X154.185 Y149.013 E.01738
G1 X154.02 Y149.631 E.02006
G1 X153.947 Y150.18 E.01736
G1 X153.947 Y150.82 E.02007
G1 X154.02 Y151.369 E.01736
G1 X154.185 Y151.987 E.02006
G1 X154.397 Y152.499 E.01738
G1 X154.645 Y152.928 E.01554
G1 X125.355 Y152.928 E.91837
G1 X125.603 Y152.499 E.01554
G1 X125.815 Y151.987 E.01738
G1 X125.98 Y151.369 E.02006
G1 X126.053 Y150.82 E.01736
G1 X126.053 Y150.18 E.02007
G1 X125.98 Y149.631 E.01736
G1 X125.815 Y149.013 E.02006
G1 X125.524 Y148.329 E.02331
G1 X125.283 Y147.947 E.01416
G1 X124.875 Y147.42 E.0209
G1 X124.493 Y147.055 E.01657
G1 X123.998 Y146.676 E.01955
G1 X123.499 Y146.397 E.01793
G1 X122.894 Y146.149 E.0205
G1 X122.336 Y146.016 E.01799
G1 X121.656 Y145.938 E.02146
G1 X121.15 Y145.951 E.01587
G1 X120.519 Y146.037 E.01997
G1 X120.013 Y146.185 E.01653
G1 X119.417 Y146.434 E.02025
G1 X118.947 Y146.717 E.0172
G1 X118.406 Y147.137 E.02147
G1 X118.055 Y147.507 E.01599
G1 X117.638 Y148.055 E.02159
G1 X117.397 Y148.501 E.01589
G1 X117.185 Y149.013 E.01738
G1 X117.02 Y149.631 E.02006
G1 X116.947 Y150.18 E.01736
G1 X116.947 Y150.82 E.02007
G1 X117.02 Y151.369 E.01736
G1 X117.185 Y151.987 E.02006
G1 X117.397 Y152.499 E.01738
G1 X117.645 Y152.928 E.01554
G1 X78.831 Y152.928 E1.21698
G1 X78.98 Y152.369 E.01814
G1 X79.053 Y151.82 E.01736
G1 X79.053 Y151.18 E.02007
G1 X78.98 Y150.631 E.01736
G1 X78.815 Y150.013 E.02006
G1 X78.603 Y149.501 E.01738
G1 X78.283 Y148.947 E.02006
G1 X77.858 Y148.4 E.02172
G1 X77.493 Y148.055 E.01575
G1 X76.946 Y147.639 E.02155
G1 X76.499 Y147.397 E.01594
G1 X75.864 Y147.138 E.0215
G1 X75.336 Y147.016 E.01699
G1 X74.679 Y146.939 E.02074
G1 X74.15 Y146.951 E.01659
G1 X73.534 Y147.035 E.01949
G1 X73.013 Y147.185 E.017
G1 X72.368 Y147.457 E.02195
G1 X71.915 Y147.741 E.01676
G1 X71.32 Y148.213 E.02381
G1 X70.973 Y148.613 E.0166
G1 X70.644 Y149.047 E.01708
G1 X70.397 Y149.501 E.01621
G1 X70.185 Y150.013 E.01738
G1 X70.02 Y150.631 E.02006
G1 X69.947 Y151.18 E.01736
G1 X69.947 Y151.82 E.02007
G1 X70.02 Y152.369 E.01736
G1 X70.169 Y152.928 E.01814
G1 X56.01 Y152.928 E.44394
G1 X55.47 Y152.946 E.01694
G1 X55.987 Y152.815 E.01672
G1 X56.499 Y152.603 E.01738
G1 X57.053 Y152.283 E.02006
G1 X57.493 Y151.945 E.0174
G1 X57.945 Y151.493 E.02004
G1 X58.283 Y151.053 E.0174
G1 X58.603 Y150.499 E.02006
G1 X58.815 Y149.987 E.01738
G1 X58.98 Y149.369 E.02006
G1 X59.053 Y148.82 E.01736
G1 X59.053 Y148.18 E.02007
G1 X58.958 Y147.491 E.02181
G1 X58.763 Y146.889 E.01984
G1 X58.54 Y146.363 E.01791
G1 X58.259 Y145.915 E.01658
G1 X57.888 Y145.435 E.01902
G1 X57.493 Y145.055 E.01719
G1 X57.053 Y144.717 E.0174
G1 X56.499 Y144.397 E.02006
G1 X55.987 Y144.185 E.01738
G1 X55.336 Y144.016 E.02109
G1 X54.756 Y143.947 E.01831
G1 X54.15 Y143.951 E.019
G1 X53.631 Y144.02 E.01642
G1 X53.072 Y144.169 E.01814
G1 X53.072 Y83.831 E1.89185
G1 X53.631 Y83.98 E.01814
G1 X54.18 Y84.053 E.01736
G1 X54.82 Y84.053 E.02007
G1 X55.369 Y83.98 E.01736
G1 X55.987 Y83.815 E.02006
G1 X56.499 Y83.603 E.01738
G1 X57.053 Y83.283 E.02006
G1 X57.584 Y82.872 E.02105
G1 X57.945 Y82.493 E.01641
G1 X58.283 Y82.053 E.0174
G1 X58.603 Y81.499 E.02006
G1 X58.815 Y80.987 E.01738
G1 X58.98 Y80.369 E.02006
G1 X59.053 Y79.82 E.01736
G1 X59.053 Y79.18 E.02007
G1 X58.98 Y78.631 E.01736
G1 X58.831 Y78.072 E.01814
G1 X172.169 Y78.072 E3.55363
G1 X172.02 Y78.631 E.01814
G1 X171.947 Y79.18 E.01736
G1 X171.947 Y79.82 E.02007
G1 X172.02 Y80.369 E.01736
G1 X172.096 Y80.655 E.00928
G1 X172.096 Y80.655 F9000
G1 X172.473 Y80.614
G1 F1200
G1 X172.534 Y80.843 E.00743
G1 X172.746 Y81.355 E.01738
G1 X173.016 Y81.824 E.01697
G1 X173.354 Y82.263 E.01737
G1 X173.737 Y82.646 E.01698
G1 X174.176 Y82.984 E.01737
G1 X174.645 Y83.254 E.01697
G1 X175.157 Y83.466 E.01738
G1 X175.68 Y83.606 E.01698
G1 X176.229 Y83.679 E.01736
G1 X176.771 Y83.679 E.01699
G1 X177.32 Y83.606 E.01736
G1 X177.843 Y83.466 E.01698
G1 X178.305 Y83.275 E.01567
G1 X178.305 Y147.725 E2.02078
G1 X177.843 Y147.534 E.01567
G1 X177.292 Y147.39 E.01786
G1 X176.712 Y147.322 E.01831
G1 X176.199 Y147.325 E.01609
G1 X175.68 Y147.394 E.01642
G1 X175.157 Y147.534 E.01698
G1 X174.645 Y147.746 E.01738
G1 X174.176 Y148.016 E.01697
G1 X173.737 Y148.354 E.01737
G1 X173.354 Y148.737 E.01698
G1 X173.016 Y149.176 E.01737
G1 X172.746 Y149.645 E.01697
G1 X172.534 Y150.157 E.01738
G1 X172.394 Y150.68 E.01698
G1 X172.321 Y151.229 E.01736
G1 X172.321 Y151.771 E.01699
G1 X172.394 Y152.32 E.01736
G1 X172.534 Y152.843 E.01698
G1 X172.725 Y153.305 E.01567
G1 X161.605 Y153.305 E.34866
G1 X161.984 Y152.824 E.0192
G1 X162.254 Y152.355 E.01697
G1 X162.466 Y151.843 E.01738
G1 X162.606 Y151.32 E.01698
G1 X162.679 Y150.771 E.01736
G1 X162.679 Y150.229 E.01699
G1 X162.606 Y149.68 E.01736
G1 X162.466 Y149.157 E.01698
G1 X162.254 Y148.645 E.01738
G1 X161.984 Y148.176 E.01697
G1 X161.646 Y147.737 E.01737
G1 X161.263 Y147.354 E.01698
G1 X160.824 Y147.016 E.01737
G1 X160.355 Y146.746 E.01697
G1 X159.752 Y146.499 E.02043
G1 X159.292 Y146.39 E.01482
G1 X158.712 Y146.322 E.01831
G1 X158.203 Y146.325 E.01596
G1 X157.68 Y146.394 E.01654
G1 X157.157 Y146.534 E.01698
G1 X156.645 Y146.746 E.01738
G1 X156.176 Y147.016 E.01697
G1 X155.737 Y147.354 E.01737
G1 X155.354 Y147.737 E.01698
G1 X155.016 Y148.176 E.01737
G1 X154.746 Y148.645 E.01697
G1 X154.534 Y149.157 E.01738
G1 X154.394 Y149.68 E.01698
G1 X154.321 Y150.229 E.01736
G1 X154.321 Y150.771 E.01699
G1 X154.394 Y151.32 E.01736
G1 X154.534 Y151.843 E.01698
G1 X154.746 Y152.355 E.01738
G1 X155.016 Y152.824 E.01697
G1 X155.395 Y153.305 E.0192
G1 X124.605 Y153.305 E.9654
G1 X124.984 Y152.824 E.0192
G1 X125.254 Y152.355 E.01697
G1 X125.466 Y151.843 E.01738
G1 X125.606 Y151.32 E.01698
G1 X125.679 Y150.771 E.01736
G1 X125.679 Y150.229 E.01699
G1 X125.606 Y149.68 E.01736
G1 X125.466 Y149.157 E.01698
G1 X125.254 Y148.645 E.01738
G1 X124.984 Y148.176 E.01697
G1 X124.646 Y147.737 E.01737
G1 X124.263 Y147.354 E.01698
G1 X123.824 Y147.016 E.01737
G1 X123.355 Y146.746 E.01697
G1 X122.764 Y146.503 E.02004
G1 X122.292 Y146.39 E.01522
G1 X121.712 Y146.322 E.01831
G1 X121.203 Y146.325 E.01596
G1 X120.68 Y146.394 E.01654
G1 X120.157 Y146.534 E.01698
G1 X119.645 Y146.746 E.01738
G1 X119.176 Y147.016 E.01697
G1 X118.737 Y147.354 E.01737
G1 X118.354 Y147.737 E.01698
G1 X118.016 Y148.176 E.01737
G1 X117.746 Y148.645 E.01697
G1 X117.534 Y149.157 E.01738
G1 X117.394 Y149.68 E.01698
G1 X117.321 Y150.229 E.01736
G1 X117.321 Y150.771 E.01699
G1 X117.394 Y151.32 E.01736
G1 X117.534 Y151.843 E.01698
G1 X117.746 Y152.355 E.01738
G1 X118.016 Y152.824 E.01697
G1 X118.396 Y153.305 E.01922
G1 X78.275 Y153.305 E1.25796
G1 X78.466 Y152.843 E.01567
G1 X78.606 Y152.32 E.01698
G1 X78.679 Y151.771 E.01736
G1 X78.679 Y151.229 E.01699
G1 X78.606 Y150.68 E.01736
G1 X78.466 Y150.157 E.01698
G1 X78.254 Y149.645 E.01738
G1 X77.984 Y149.176 E.01697
G1 X77.646 Y148.737 E.01737
G1 X77.263 Y148.354 E.01698
G1 X76.794 Y147.994 E.01854
G1 X76.355 Y147.746 E.01581
G1 X75.807 Y147.519 E.0186
G1 X75.292 Y147.39 E.01665
G1 X74.712 Y147.322 E.01831
G1 X74.199 Y147.325 E.01609
G1 X73.68 Y147.394 E.01642
G1 X73.157 Y147.534 E.01698
G1 X72.645 Y147.746 E.01738
G1 X72.176 Y148.016 E.01697
G1 X71.737 Y148.354 E.01737
G1 X71.354 Y148.737 E.01698
G1 X71.016 Y149.176 E.01737
G1 X70.746 Y149.645 E.01697
G1 X70.534 Y150.157 E.01738
G1 X70.394 Y150.68 E.01698
G1 X70.321 Y151.229 E.01736
G1 X70.321 Y151.771 E.01699
G1 X70.394 Y152.32 E.01736
G1 X70.534 Y152.843 E.01698
G1 X70.725 Y153.305 E.01567
G1 X52.695 Y153.305 E.56532
G1 X52.695 Y152.275 E.03229
G1 X53.157 Y152.466 E.01567
G1 X53.68 Y152.606 E.01698
G1 X54.229 Y152.679 E.01736
G1 X54.771 Y152.679 E.01699
G1 X55.32 Y152.606 E.01736
G1 X55.843 Y152.466 E.01698
G1 X56.355 Y152.254 E.01738
G1 X56.824 Y151.984 E.01697
G1 X57.263 Y151.646 E.01737
G1 X57.646 Y151.263 E.01698
G1 X57.984 Y150.824 E.01737
G1 X58.254 Y150.355 E.01697
G1 X58.466 Y149.843 E.01738
G1 X58.606 Y149.32 E.01698
G1 X58.679 Y148.771 E.01736
G1 X58.679 Y148.229 E.01699
G1 X58.606 Y147.68 E.01736
G1 X58.466 Y147.157 E.01698
G1 X58.254 Y146.645 E.01738
G1 X57.984 Y146.176 E.01697
G1 X57.646 Y145.737 E.01737
